X:293
T:Planxty Pratchett
M:C|
C:© Paul Gitlitz 2011 Revised 2013
K:Am
E2|:"Am"A2a2e4|"F"f2fg fed2|"E7"e2ef edc2|"B7"B^AB2 "E7"edcB|!
"Am"A2a2e3e|"F"fefg fed2|"E7"edef edc2|BdcB "Am"A3E:|!
|:"Am"ABcA "F"Bcd2|"G"gfed "E7"edcB|"Am"ABcA "F"Bcd2|"G"gfed "E7"e4|!
"Am"ABcA "F"Bcd2|"G"gfed "E7"edcB|"Dm"fedB "C"edcB|"G"dcBG "Am"A4:|]
